icons/action-pdf-download.svg

<svg
  xmlns="http://www.w3.org/2000/svg"
  viewBox="0 0 500 500"
  width="500"
  height="500"
  fill="#ffffff"
>
  <polygon points="259.24 186.4 236.43 186.4 236.43 266.56 225.08 266.56 247.83 305.96 270.58 266.56 259.24 266.56 259.24 186.4" />
  <path d="M183.69 233.39H213v-22.81h-29.4c-1.13 0-23.68-.22-28.18-17.13-2.11-7.92-1.76-14.32 1.05-19 4.06-6.81 12.41-8.89 12.4-8.89l9.28-2.12-.31-9.5c0-.63-.38-15.49 10.79-21.37 10.78-5.65 18.47-1.75 19.1-1.41l8.81 5.35 6.25-8.18c1-1.25 23.68-30.39 56.31-20 29.71 9.48 25.38 37.89 24.8 41l-2.37 12 12.08 1.57c.87.11 21.3 3.07 21.3 29.33 0 4.72-1.3 8.21-4.09 11-6.36 6.27-19 7.52-23.44 7.44h-24.84v22.81h25.32c4.66 0 25.44-.77 38.88-13.92 7.18-7 11-16.47 11-27.3 0-28.82-16.46-43.2-30.45-49 .11-19-8.23-46.1-41.23-56.62-36.93-11.85-64.28 9.76-75.68 21.36a45.7 45.7 0 0 0-32.38 4.35c-16.12 8.47-21 24.06-22.41 33.86a42.72 42.72 0 0 0-18.52 16.17c-6.26 10.25-7.51 22.67-3.72 36.94 9.11 34.18 48.78 34.05 50.34 34.07z" />
  <path d="M408.93 5H99C64.73 5 36.81 34.5 36.81 70.77v358.46C36.81 465.5 64.73 495 99 495h302c34.31 0 62.23-29.5 62.23-65.77V63.61zM99 41.5h276v49.29h51.66v254.1H73.31V70.77C73.31 54.63 84.85 41.5 99 41.5zm129.68 416.75v-89.36a167.59 167.59 0 0 1 24.93-1.89c16.85 0 28.85 3.9 36.8 11.32s12.8 17.93 12.8 32.62-4.58 27-13.07 35.31c-6.41 6.41-16 10.58-27.86 12.25h-31c-.87-.08-1.77-.16-2.6-.25zm138.7-80.74h-37.2v30.19h34.36v9.71h-34.36v41.09h-11.73v-90.83h48.93zM205.9 413c-6.2 6.61-16.31 10-27.77 10a40.61 40.61 0 0 1-9.43-.8v36.3H157v-89.75a136.48 136.48 0 0 1 22.48-1.75c11.59 0 20.09 2.69 25.48 7.55 5 4.31 7.95 10.92 7.95 19s-2.43 14.69-7.01 19.45z" />
  <path d="M291 411.34c.14-21.43-12-35-36.8-35a66.9 66.9 0 0 0-13.74 1.21v71.71a73.9 73.9 0 0 0 11.86.67c25.02-.04 38.68-14.06 38.68-38.59z" />
  <path d="M179.75 376.3a49.19 49.19 0 0 0-11.05.94v35.32a39.57 39.57 0 0 0 9.71.94c14.15 0 22.77-6.87 22.77-19.41 0-12-8.49-17.79-21.43-17.79z" />
</svg>

<svg xmlns="http://www.w3.org/2000/svg" viewBox="0 0 500 500">
  <g id="action-pdf-download">
    <polygon id="down-arrow" points="259.24 186.4 236.43 186.4 236.43 266.56 225.08 266.56 247.83 305.96 270.58 266.56 259.24 266.56 259.24 186.4"/>
    <path id="cloud" d="M183.69,233.39H213V210.58H183.6c-1.13,0-23.68-.22-28.18-17.13-2.11-7.92-1.76-14.32,1.05-19,4.06-6.81,12.41-8.89,12.4-8.89l9.28-2.12-.31-9.5c0-.63-.38-15.49,10.79-21.37,10.78-5.65,18.47-1.75,19.1-1.41l8.81,5.35,6.25-8.18c1-1.25,23.68-30.39,56.31-20,29.71,9.48,25.38,37.89,24.8,41l-2.37,12,12.08,1.57c.87.11,21.3,3.07,21.3,29.33,0,4.72-1.3,8.21-4.09,11-6.36,6.27-19,7.52-23.44,7.44H282.54v22.81h25.32c4.66,0,25.44-.77,38.88-13.92,7.18-7,11-16.47,11-27.3,0-28.82-16.46-43.2-30.45-49,.11-19-8.23-46.1-41.23-56.62C249.13,74.79,221.78,96.4,210.38,108A45.7,45.7,0,0,0,178,112.35c-16.12,8.47-21,24.06-22.41,33.86a42.72,42.72,0,0,0-18.52,16.17c-6.26,10.25-7.51,22.67-3.72,36.94C142.46,233.5,182.13,233.37,183.69,233.39Z"/>
    <path id="outline" d="M408.93,5H99C64.73,5,36.81,34.5,36.81,70.77V429.23C36.81,465.5,64.73,495,99,495H401c34.31,0,62.23-29.5,62.23-65.77V63.61ZM99,41.5H375V90.79h51.66v254.1H73.31V70.77C73.31,54.63,84.85,41.5,99,41.5ZM228.68,458.25V368.89A167.59,167.59,0,0,1,253.61,367c16.85,0,28.85,3.9,36.8,11.32s12.8,17.93,12.8,32.62-4.58,27-13.07,35.31c-6.41,6.41-16,10.58-27.86,12.25h-31C230.41,458.42,229.51,458.34,228.68,458.25Zm138.7-80.74h-37.2V407.7h34.36v9.71H330.18V458.5H318.45V367.67h48.93ZM205.9,413c-6.2,6.61-16.31,10-27.77,10a40.61,40.61,0,0,1-9.43-.8V458.5H157V368.75A136.48,136.48,0,0,1,179.48,367c11.59,0,20.09,2.69,25.48,7.55,5,4.31,7.95,10.92,7.95,19S210.48,408.24,205.9,413Z"/>
    <path d="M291,411.34c.14-21.43-12-35-36.8-35a66.9,66.9,0,0,0-13.74,1.21v71.71a73.9,73.9,0,0,0,11.86.67C277.34,449.89,291,435.87,291,411.34Z"/>
    <path d="M179.75,376.3a49.19,49.19,0,0,0-11.05.94v35.32a39.57,39.57,0,0,0,9.71.94c14.15,0,22.77-6.87,22.77-19.41C201.18,382.09,192.69,376.3,179.75,376.3Z"/>
  </g>
</svg>
